packages/kaspersky-hexa-ui-icons/src/iconsSVGs/24/Clean.svg

<svg width="24" height="24" viewBox="0 0 24 24" fill="none" xmlns="http://www.w3.org/2000/svg">
<path fill-rule="evenodd" clip-rule="evenodd" d="M11.9999 2C10.343 2 8.99989 3.34315 8.99989 5V10H8.8065C7.51038 10 6.38367 10.8896 6.08292 12.1503L4.61499 18.3039C4.16522 20.1893 5.59476 22 7.53311 22H16.4667C18.405 22 19.8346 20.1893 19.3848 18.3039L17.9169 12.1503C17.6161 10.8896 16.4894 10 15.1933 10H14.9999V5C14.9999 3.34315 13.6567 2 11.9999 2ZM10.9999 20V19C10.9999 18.4477 10.5522 18 9.99989 18C9.44761 18 8.99989 18.4477 8.99989 19V20H7.53311C6.88699 20 6.41048 19.3964 6.5604 18.768L6.96358 17.0778H17.0362L17.4394 18.768C17.5893 19.3964 17.1128 20 16.4667 20H10.9999ZM12.9999 10V5C12.9999 4.44772 12.5522 4 11.9999 4C11.4476 4 10.9999 4.44772 10.9999 5V10H12.9999ZM8.02833 12.6144C8.11426 12.2542 8.43618 12 8.8065 12H15.1933C15.5636 12 15.8855 12.2542 15.9715 12.6144L16.5591 15.0778H7.44068L8.02833 12.6144Z" fill="black"/>
</svg>

<svg xmlns="http://www.w3.org/2000/svg" width="24" height="24" fill="none" viewBox="0 0 24 24"><path fill="#000" fill-rule="evenodd" d="M11.9999 2c-1.6569 0-3 1.3432-3 3v5h-.1934c-1.2961 0-2.4228.8896-2.7236 2.1503l-1.468 6.1536C4.1653 20.1893 5.5949 22 7.5332 22h8.9336c1.9383 0 3.3679-1.8107 2.9181-3.6961l-1.4679-6.1536C17.6161 10.8896 16.4894 10 15.1933 10h-.1934V5c0-1.6568-1.3432-3-3-3m-1 18v-1c0-.5523-.4477-1-1-1s-1 .4477-1 1v1H7.533c-.6461 0-1.1226-.6036-.9727-1.232l.4032-1.6902h10.0726l.4032 1.6902c.1499.6284-.3266 1.232-.9727 1.232zm2-10V5c0-.5523-.4477-1-1-1s-1 .4477-1 1v5zm-4.9716 2.6144A.8.8 0 0 1 8.8065 12h6.3868a.8.8 0 0 1 .7782.6144l.5876 2.4634H7.4407z"/></svg>
